X: 134
T: Missa Sub tuum presidium / Credo
N: Derived from Rue1029c-Missa_Sub_tuum_presidium-Credo.krn
C: Pierre de la Rue
%%abc-version 2.0
%%abcx-abcm2ps-target-version 5.9.1 (29 Sep 2008)
%%abc-creator hum2abc beta
%%abcx-conversion-date 2019/02/17 08:01:15
%%abc-edited-by Jesse Rodin
%%abc-edited-by ENCODER NAME
%%abcx-initial-encoding-date 2012/01/21/
%%humdrum-veritas 3808210719
%%humdrum-veritas-data 2654342194
%%linebreak <none>
%%barnumbers 0
L: 1/4
M: 4/2
Q: 1/2=120
%%staves [1 2 3 4]
V: 1 clef=treble
V: 2 clef=treble-8
V: 3 clef=treble-8
V: 4 clef=bass
K: C
[V:1] E4G2A2 | 
[V:2] e6c2 | 
[V:3] z8 | 
[V:4] z8 | 
[V:1] B2E2G2A2 | 
[V:2] d2e4A2 | 
[V:3] z8 | 
[V:4] z8 | 
[V:1] B2c4BA | 
[V:2] z2A2c2d2 | 
[V:3] z8 | 
[V:4] z8 | 
[V:1] G4z4 | 
[V:2] e4e4- | 
[V:3] E4G2A2 | 
[V:4] z8 | 
[V:1] z8 | 
[V:2] e4z4 | 
[V:3] B2E2B2c2- | 
[V:4] E,8 | 
[V:1] z8 | 
[V:2] z4e4 | 
[V:3] c2B4A2 | 
[V:4] E,2D,2C,4 | 
[V:1] z4A4 | 
[V:2] d2B2d2A2 | 
[V:3] B4z4 | 
[V:4] B,,4z4 | 
[V:1] G2E2G2D2 | 
[V:2] e3BB4 | 
[V:3] z4z4 | 
[V:4] z8 | 
[V:1] A3EE4 | 
[V:2] z8 | 
[V:3] A4G2E2 | 
[V:4] z4E,4 | 
[V:1] z8 | 
[V:2] z4e3e | 
[V:3] F2G2A3E | 
[V:4] D,2B,,2C,2A,,2 | 
[V:1] z4B3B | 
[V:2] e2e2dcBA | 
[V:3] E4z4 | 
[V:4] E,4B,,4 | 
[V:1] B2B2AGFE | 
[V:2] G2d4c2 | 
[V:3] z8 | 
[V:4] z8 | 
[V:1] D2d4c2 | 
[V:2] d2B4A2 | 
[V:3] z8 | 
[V:4] z8 | 
[V:1] d2B4A2 | 
[V:2] B2d3c2B/A/ | 
[V:3] z8 | 
[V:4] z8 | 
[V:1] B2d3c2B/A/ | 
[V:2] G3AF4 | 
[V:3] z4z2c2- | 
[V:4] z4z4 | 
[V:1] G4z4 | 
[V:2] E4z4 | 
[V:3] c2BGA2G2 | 
[V:4] E,4F,2E,C, | 
[V:1] z4z4 | 
[V:2] z8 | 
[V:3] B2c2BGA2 | 
[V:4] D,2C,2E,2F,2 | 
[V:1] z2B2c4 | 
[V:2] z8 | 
[V:3] G2d2e4 | 
[V:4] E,C,D,2C,4 | 
[V:1] BGA2D4 | 
[V:2] z4z4 | 
[V:3] dBc2B4- | 
[V:4] z4z2G,2 | 
[V:1] z2G2G2G2 | 
[V:2] z2e2d2d2 | 
[V:3] B4z2B2 | 
[V:4] G,2E,2G,2G,2 | 
[V:1] G2G2E2G2- | 
[V:2] e4B2e2- | 
[V:3] B2B2B2c2- | 
[V:4] E,8 | 
[V:1] GABcd2G2- | 
[V:2] e2d3cBA | 
[V:3] c2B4B2 | 
[V:4] C,2D,2B,,2E,2- | 
[V:1] GABA/B/c2A2 | 
[V:2] G3FA4 | 
[V:3] c2B2E2F2 | 
[V:4] E,4C,2D,2 | 
[V:1] d2B2c2A2 | 
[V:2] B2G2A4 | 
[V:3] D2G3EF2 | 
[V:4] B,,2E,2C,2D,2 | 
[V:1] d2B2c2A2 | 
[V:2] B2G2A4 | 
[V:3] D2G2E2A2 | 
[V:4] B,,2E,2C,2D,2 | 
[V:1] d3Bc4- | 
[V:2] z4z2e2- | 
[V:3] A3GA4 | 
[V:4] B,,4A,,4- | 
[V:1] c2A2A4 | 
[V:2] eee2f2e2- | 
[V:3] z2A4A2 | 
[V:4] A,,4z4 | 
[V:1] z8 | 
[V:2] edB2c2A2- | 
[V:3] A2G2A2A2 | 
[V:4] z8 | 
[V:1] z8 | 
[V:2] A2d2d3c | 
[V:3] F2D2E3E | 
[V:4] z8 | 
[V:1] z8 | 
[V:2] d2f2e2d2 | 
[V:3] D4z2G2 | 
[V:4] z8 | 
[V:1] z8 | 
[V:2] d2g4f2 | 
[V:3] B2B2A4 | 
[V:4] z8 | 
[V:1] z4z2A2- | 
[V:2] g3fedd2- | 
[V:3] E2G3DF2 | 
[V:4] z4z4 | 
[V:1] AAA2B2A2- | 
[V:2] d2c2d4 | 
[V:3] E4D4 | 
[V:4] A,,3A,,D,2D,2- | 
[V:1] AGE2F2D2- | 
[V:2] z8 | 
[V:3] z4z2G2 | 
[V:4] D,C,C,2D,2G,,2 | 
[V:1] D2G2G2G2 | 
[V:2] z8 | 
[V:3] G2G2G2c2- | 
[V:4] G,,2G,,2C,2C,2- | 
[V:1] G2G2G3^F | 
[V:2] z8 | 
[V:3] cGB2A4 | 
[V:4] C,B,,G,,2D,4 | 
[V:1] G2B2A2G2 | 
[V:2] z8 | 
[V:3] G2G2c2c2 | 
[V:4] G,,4z4 | 
[V:1] c3BAGG2- | 
[V:2] z8 | 
[V:3] c2c3GB2 | 
[V:4] z8 | 
[V:1] G2^F2G4- | 
[V:2] z4z2d2 | 
[V:3] A4G4 | 
[V:4] z4G,4 | 
[V:1] G4z2G2 | 
[V:2] d2d4e2 | 
[V:3] z8 | 
[V:4] G,2G,4G,2 | 
[V:1] G2G4A2 | 
[V:2] e3de4- | 
[V:3] z4z2c2 | 
[V:4] G,2G,2E,2A,,2 | 
[V:1] A3GA2c2 | 
[V:2] e8- | 
[V:3] B2B2A4 | 
[V:4] E,2E,2A,,4 | 
[V:1] B2A4G2 | 
[V:2] e4z4 | 
[V:3] z2A2c2B2 | 
[V:4] z2A,,2E,2E,2 | 
[V:1] A2F2GFED | 
[V:2] z4z4 | 
[V:3] A2A2A3G | 
[V:4] C,2D,2C,A,,B,,2 | 
[V:1] C4z2c2 | 
[V:2] e4e2e2 | 
[V:3] A8- | 
[V:4] A,,8- | 
[V:1] c2c2A2c2 | 
[V:2] f2e3dcB | 
[V:3] A4z2c2 | 
[V:4] A,,8- | 
[V:1] cBAGF2E2 | 
[V:2] A4z2e2- | 
[V:3] c2c2A2c2- | 
[V:4] A,,8 | 
[V:1] z2c3BAG | 
[V:2] edcBc2d2- | 
[V:3] cBAGA2D2 | 
[V:4] z4z4 | 
[V:1] A2D2z4 | 
[V:2] d2f2f2e2 | 
[V:3] z2A2A2G2 | 
[V:4] z2D,2D,2E,2 | 
[V:1] z4z2A2 | 
[V:2] e3de4 | 
[V:3] A4B2c2- | 
[V:4] F,4E,2C,2 | 
[V:1] A2B2c4 | 
[V:2] z4z4 | 
[V:3] cBAGAG^F2 | 
[V:4] D,2C,B,,A,,G,,A,,2 | 
[V:1] B2G2A2GF | 
[V:2] z2d2f2ed | 
[V:3] G4z2G2 | 
[V:4] G,,4z2G,,2 | 
[V:1] EDE2D2D2 | 
[V:2] cBc2B2B2 | 
[V:3] G4G4- | 
[V:4] C,4G,,4- | 
[V:1] G4D4 ||  
[V:2] d4B4 ||  
[V:3] G8 ||  
[V:4] G,,8 ||  
[V:1]  [K:C] [K:clef=treble][M:2/1]z8 | 
[V:2]  [K:C] [K:clef=treble-8][M:2/1]B4G2A2 | 
[V:3]  [K:C] [K:clef=treble-8][M:2/1]z8 | 
[V:4]  [K:C] [K:clef=bass][M:2/1]z8 | 
[V:1] z8 | 
[V:2] B4c4 | 
[V:3] z8 | 
[V:4] E,4C,2D,2 | 
[V:1] z8 | 
[V:2] B4z2d2- | 
[V:3] z8 | 
[V:4] E,4F,4 | 
[V:1] z8 | 
[V:2] d2c2B2e2- | 
[V:3] z8 | 
[V:4] E,4z2G,2- | 
[V:1] z8 | 
[V:2] eBd2c4 | 
[V:3] z8 | 
[V:4] G,2F,2E,2A,2- | 
[V:1] z8 | 
[V:2] B3cdcBA | 
[V:3] z8 | 
[V:4] A,E,G,2F,4 | 
[V:1] z8 | 
[V:2] G8 | 
[V:3] B4G2A2 | 
[V:4] E,8- | 
[V:1] B4G2A2 | 
[V:2] z8 | 
[V:3] B4c4 | 
[V:4] E,8 | 
[V:1] B8 | 
[V:2] z4G4 | 
[V:3] B2d3cB2- | 
[V:4] z8 | 
[V:1] c4B2d2- | 
[V:2] E2F2G4 | 
[V:3] B2A2B4 | 
[V:4] z8 | 
[V:1] dcB4A2 | 
[V:2] B4c4 | 
[V:3] G4E2F2 | 
[V:4] z8 | 
[V:1] B2E3CF2- | 
[V:2] B4c4 | 
[V:3] G4A4 | 
[V:4] E,4C,2D,2 | 
[V:1] F2E4D2 | 
[V:2] B2G2A4 | 
[V:3] G4z4 | 
[V:4] E,2E,2F,4 | 
[V:1] E4z4 | 
[V:2] G4z4 | 
[V:3] B4G2A2 | 
[V:4] E,8 | 
[V:1] B4G2A2 | 
[V:2] G4E2F2 | 
[V:3] B4c4 | 
[V:4] z8 | 
[V:1] B4c4 | 
[V:2] G2g2e2f2 | 
[V:3] B2G2A4 | 
[V:4] E,4C,2D,2 | 
[V:1] B2G2A2F2 | 
[V:2] g2e2c2d2 | 
[V:3] G4z4 | 
[V:4] E,4F,4 | 
[V:1] G2B3cA2 | 
[V:2] e8 | 
[V:3] z2G3A/B/c2 | 
[V:4] E,4z4 | 
[V:1] B2E3FD2 | 
[V:2] z2B3cA2 | 
[V:3] B2G3AF2 | 
[V:4] z8 | 
[V:1] E2G4F2- | 
[V:2] B4z4 | 
[V:3] G4z4 | 
[V:4] E,4C,2D,2 | 
[V:1] FEE4D2 | 
[V:2] z8 | 
[V:3] z2B3cA2 | 
[V:4] E,4F,4 | 
[V:1] E4z4 | 
[V:2] B4G2A2 | 
[V:3] G4z4 | 
[V:4] E,4z4 | 
[V:1] E8- | 
[V:2] B4c4 | 
[V:3] G8- | 
[V:4] E,8- | 
[V:1] E8 ||  
[V:2] B8 ||  
[V:3] G8 ||  
[V:4] E,8 ||  
[V:1]  [K:C] [K:clef=treble][M:2/1]E4G2G2 | 
[V:2]  [K:C] [K:clef=treble-8][M:2/1]z8 | 
[V:3]  [K:C] [K:clef=treble-8][M:2/1]z8 | 
[V:4]  [K:C] [K:clef=bass][M:2/1]z8 | 
[V:1] G3F/E/D2G2- | 
[V:2] z8 | 
[V:3] E4G2G2 | 
[V:4] z8 | 
[V:1] GABcB2G2 | 
[V:2] z8 | 
[V:3] G4G2E2 | 
[V:4] z8 | 
[V:1] A2c3BBA | 
[V:2] z8 | 
[V:3] F2E2F4 | 
[V:4] z4A,,4 | 
[V:1] B4z2B2 | 
[V:2] z2B2d2d2 | 
[V:3] G8 | 
[V:4] G,,6G,,2 | 
[V:1] d2d2d3c/B/ | 
[V:2] d3c/B/A2d2- | 
[V:3] z8 | 
[V:4] G,,4D,3E, | 
[V:1] A2B4A2 | 
[V:2] d2B2c4 | 
[V:3] z8 | 
[V:4] F,2G,4^F,2 | 
[V:1] B2B,2D2D2 | 
[V:2] B4z2B2 | 
[V:3] z8 | 
[V:4] G,4z2G,,2 | 
[V:1] D3C/B,/A,2D2- | 
[V:2] d2d2d3c/B/ | 
[V:3] z8 | 
[V:4] G,,2G,,2D,3E, | 
[V:1] D2B,2C4 | 
[V:2] A2B4A2 | 
[V:3] z8 | 
[V:4] F,2G,4^F,2 | 
[V:1] B,4z4 | 
[V:2] B4z2B2 | 
[V:3] z2B2B4- | 
[V:4] G,6E,2 | 
[V:1] z4B4 | 
[V:2] B6A2 | 
[V:3] B2A2G2F2 | 
[V:4] E,8- | 
[V:1] B6A2 | 
[V:2] G2F2E2e2 | 
[V:3] E4B4 | 
[V:4] E,8- | 
[V:1] G2F2E4 | 
[V:2] e6d2 | 
[V:3] B6A2 | 
[V:4] E,8- | 
[V:1] z2B2B4- | 
[V:2] c2B2B4 | 
[V:3] G3FE4- | 
[V:4] E,8 | 
[V:1] B2A2G2F2 | 
[V:2] e6d2 | 
[V:3] E8- | 
[V:4] z8 | 
[V:1] E6D2 | 
[V:2] c2B2B4 | 
[V:3] E4G4 | 
[V:4] z2E,2E,4- | 
[V:1] C2B,2E4- | 
[V:2] e6d2 | 
[V:3] G4G4 | 
[V:4] E,2D,2C,2B,,2 | 
[V:1] E2F2G2A2 | 
[V:2] c3BB2E2 | 
[V:3] A4G2c2- | 
[V:4] A,,4E,4- | 
[V:1] B4c4 | 
[V:2] e8 | 
[V:3] c2B4A2 | 
[V:4] E,2D,2C,3B,, | 
[V:1] d4B2B2- | 
[V:2] d4g4 | 
[V:3] B8 | 
[V:4] B,,4E,4- | 
[V:1] B2AGA4 | 
[V:2] f2e4d2 | 
[V:3] z8 | 
[V:4] E,4F,4 | 
[V:1] G8 | 
[V:2] e4z2E2 | 
[V:3] B6B2 | 
[V:4] E,8 | 
[V:1] z2G2G2G2 | 
[V:2] E2E2G2G2 | 
[V:3] B4B4 | 
[V:4] z8 | 
[V:1] A4G3A | 
[V:2] F4E4 | 
[V:3] c4c4 | 
[V:4] z8 | 
[V:1] B4z2G2 | 
[V:2] z8 | 
[V:3] B8 | 
[V:4] z2E,2E,2E,2 | 
[V:1] G2G2A2A2 | 
[V:2] z8 | 
[V:3] z2B2c2c2 | 
[V:4] G,2G,2F,2F,2 | 
[V:1] G2GAB4 | 
[V:2] z8 | 
[V:3] c2c2d2d2 | 
[V:4] E,4z4 | 
[V:1] z2G2G2G2 | 
[V:2] z8 | 
[V:3] B4c2c2 | 
[V:4] z8 | 
[V:1] G2G2A2B2- | 
[V:2] z8 | 
[V:3] c2c2c2d2 | 
[V:4] z8 | 
[V:1] BAGFE2E2 | 
[V:2] z8 | 
[V:3] e3dcBA2 | 
[V:4] z8 | 
[V:1] E2E2E2E2 | 
[V:2] z8 | 
[V:3] A2A2A2A2 | 
[V:4] z8 | 
[V:1] F2G3FED | 
[V:2] z8 | 
[V:3] A2B2c3B | 
[V:4] z8 | 
[V:1] C2B,4E2- | 
[V:2] z8 | 
[V:3] A2G2E4 | 
[V:4] z8 | 
[V:1] EFGAB2c2- | 
[V:2] z8 | 
[V:3] e4e2e2 | 
[V:4] z8 | 
[V:1] cBA4^G2 | 
[V:2] z8 | 
[V:3] c2d2B4 | 
[V:4] z8 | 
[V:1] A8 | 
[V:2] e4e2e2 | 
[V:3] A8 | 
[V:4] z4A,4 | 
[V:1] z8 | 
[V:2] c4d2dc | 
[V:3] z8 | 
[V:4] A,2A,2F,2G,2 | 
[V:1] z4c4 | 
[V:2] BAB2E2E2- | 
[V:3] z8 | 
[V:4] G,F,E,D,E,2A,,2 | 
[V:1] c2c2c2c2- | 
[V:2] E2e2e2e2 | 
[V:3] z8 | 
[V:4] A,,8 | 
[V:1] c2A2A2B2- | 
[V:2] e2f4d2 | 
[V:3] z8 | 
[V:4] z8 | 
[V:1] BAGFG2C2 | 
[V:2] e2edcBc2- | 
[V:3] z2c2cde2 | 
[V:4] z8 | 
[V:1] C4z4 | 
[V:2] c2A2A2z2 | 
[V:3] A2A2d2dc | 
[V:4] z2A,2F,2G,2 | 
[V:1] z8 | 
[V:2] z4z2e2 | 
[V:3] BAB2E2E2- | 
[V:4] G,F,E,D,E,2A,,2 | 
[V:1] z2c2A2B2- | 
[V:2] e4f2d2- | 
[V:3] E2A2F2G2- | 
[V:4] A,,4z4 | 
[V:1] BAGFG2C2 | 
[V:2] dAc2B2A2 | 
[V:3] GFEDE4 | 
[V:4] z4z2A,,2 | 
[V:1] C2C2C2C2 | 
[V:2] A2A2A2A2 | 
[V:3] z2E2E2E2 | 
[V:4] A,,2A,,2A,,4 | 
[V:1] B,2C4B,2- | 
[V:2] B2e3dB2 | 
[V:3] E4E2E2 | 
[V:4] G,,2C,3B,,G,,2 | 
[V:1] B,2A,2B,2C2 | 
[V:2] c4B2e2- | 
[V:3] E4E4 | 
[V:4] A,,4z2A,,2 | 
[V:1] B,2E4D2 | 
[V:2] edcBA3G | 
[V:3] E4F4 | 
[V:4] G,,2A,,2D,4 | 
[V:1] E8 | 
[V:2] B8 | 
[V:3] E4z2B2 | 
[V:4] z4z2G,2 | 
[V:1] z8 | 
[V:2] z8 | 
[V:3] B4A4 | 
[V:4] G,4F,4 | 
[V:1] z4z2B2 | 
[V:2] z4z2B2 | 
[V:3] G8 | 
[V:4] E,8 | 
[V:1] B4A4 | 
[V:2] B4d4 | 
[V:3] z8 | 
[V:4] z8 | 
[V:1] G8 | 
[V:2] e8 | 
[V:3] G3AB2c2- | 
[V:4] E,8 | 
[V:1] G3AB2c2- | 
[V:2] e6e2 | 
[V:3] c2B4A2 | 
[V:4] E,3F,G,2A,2- | 
[V:1] c2B2B3A | 
[V:2] d2d2c4 | 
[V:3] B4z4 | 
[V:4] A,2G,2E,2F,2 | 
[V:1] B4z4 | 
[V:2] B4z4 | 
[V:3] d4B2c2 | 
[V:4] G,2G,2G,3F, | 
[V:1] z8 | 
[V:2] z8 | 
[V:3] c2B4A2 | 
[V:4] E,2D,2C,4 | 
[V:1] B6B2 | 
[V:2] d6d2 | 
[V:3] B4B4 | 
[V:4] B,,8 | 
[V:1] B4B4 | 
[V:2] d4d4 | 
[V:3] B2B2d4- | 
[V:4] B,,6B,,2 | 
[V:1] A8 | 
[V:2] f8 | 
[V:3] d2cBA2A2 | 
[V:4] D,4D,4 | 
[V:1] G6E2 | 
[V:2] e6c2 | 
[V:3] c2c2B4- | 
[V:4] E,6E,2- | 
[V:1] G2F2E4 | 
[V:2] e2f2g2G2 | 
[V:3] B4B4 | 
[V:4] E,2D,2E,4 | 
[V:1] z2G2G2G2 | 
[V:2] G2G2E2G2- | 
[V:3] B2B2B4 | 
[V:4] E,8 | 
[V:1] E2G3FE2- | 
[V:2] GFE4E2 | 
[V:3] B8 | 
[V:4] z4z2G,2 | 
[V:1] E2D2E4 | 
[V:2] E2G2G2G2 | 
[V:3] B4B2B2 | 
[V:4] G,2G,2E,2E,2 | 
[V:1] z4z2E2 | 
[V:2] E2E2G4 | 
[V:3] B8 | 
[V:4] G,3F,E,4 | 
[V:1] F2G2E2E2- | 
[V:2] z2G4G2 | 
[V:3] B4B2B2 | 
[V:4] D,2E,4E,2 | 
[V:1] E2D2E2G2- | 
[V:2] E2G4GA | 
[V:3] B2B2B4- | 
[V:4] G,2G,2E,2E,2 | 
[V:1] GABcd2B2- | 
[V:2] Bcd4d2 | 
[V:3] B4B4 | 
[V:4] G,4D,2G,2- | 
[V:1] B2A4^G2 | 
[V:2] e2f2e4 | 
[V:3] B4B4 | 
[V:4] G,F,D,2E,4 | 
[V:1] A8 | 
[V:2] c8 | 
[V:3] A8 | 
[V:4] A,,8 | 
[V:1] [M:3/1]z12 | 
[V:2] [M:3/1]z12 | 
[V:3] [M:3/1]B4B4c4 | 
[V:4] [M:3/1]z4z4E,4 | 
[V:1] z12 | 
[V:2] z12 | 
[V:3] B2G2A4G2E2 | 
[V:4] E,4F,4E,2C,2 | 
[V:1] z12 | 
[V:2] z12 | 
[V:3] F4E8 | 
[V:4] D,4C,2A,,2C,4 | 
[V:1] B4B4c4 | 
[V:2] z4z4e4 | 
[V:3] z12 | 
[V:4] B,,8z4 | 
[V:1] B2G2A4G2E2 | 
[V:2] e4f4e2c2 | 
[V:3] z12 | 
[V:4] z12 | 
[V:1] F4E8 | 
[V:2] d4c2A2c4 | 
[V:3] z12 | 
[V:4] z12 | 
[V:1] B4B4c4 | 
[V:2] B8z4 | 
[V:3] D4D4E4 | 
[V:4] B,,4B,,4A,,4 | 
[V:1] B2G2A4G2E2 | 
[V:2] d4d4B2c2 | 
[V:3] D2G4F2G4 | 
[V:4] B,,4D,4E,4 | 
[V:1] F4E2E4D2 | 
[V:2] d4B2c2A4 | 
[V:3] A4G2E2F4 | 
[V:4] D,2D,4C,2D,4 | 
[V:1] E8z4 | 
[V:2] e4d2B2c4 | 
[V:3] E12 | 
[V:4] z12 | 
[V:1] D4D4D4 | 
[V:2] B8B4 | 
[V:3] z12 | 
[V:4] B,,4B,,4B,,4 | 
[V:1] G8z4 | 
[V:2] G12- | 
[V:3] B4B4c4 | 
[V:4] E,6D,2C,2B,,A,, | 
[V:1] G6F2E2DC | 
[V:2] G8z4 | 
[V:3] B8z4 | 
[V:4] G,,8A,,4 | 
[V:1] B,2E4D2C3B, | 
[V:2] z12 | 
[V:3] B2c4B4A2 | 
[V:4] G,,2A,,4B,,2C,4 | 
[V:1] B2c4B4A2 | 
[V:2] z12 | 
[V:3] B2e4d2c4 | 
[V:4] B,,2A,,2C,2D,2E,2F,2 | 
[V:1] [M:2/1]B8 | 
[V:2] [M:2/1]d4d3c | 
[V:3] [M:2/1]B4z2d2 | 
[V:4] [M:2/1]G,8- | 
[V:1] z2d2d3c | 
[V:2] B3AG3A | 
[V:3] d3cB2A2 | 
[V:4] G,8 | 
[V:1] B3AG4- | 
[V:2] B2E2G4- | 
[V:3] G3FE4 | 
[V:4] z2E,2E,3D, | 
[V:1] G4c4 | 
[V:2] G4A4 | 
[V:3] z4z2e2 | 
[V:4] C,2B,,2A,,4 | 
[V:1] B2A4G2 | 
[V:2] z2e4d2 | 
[V:3] e3dc2B2 | 
[V:4] z8 | 
[V:1] A2c2B2c2- | 
[V:2] e2A2e2A2 | 
[V:3] A4z4 | 
[V:4] A,4G,2F,2 | 
[V:1] c2BAG2c2 | 
[V:2] e6e2 | 
[V:3] c4BGA2 | 
[V:4] A,4E,2A,,2 | 
[V:1] B2G2A2B2 | 
[V:2] e8 | 
[V:3] B2E2c2BG | 
[V:4] E,4z4 | 
[V:1] EFGAB2c2- | 
[V:2] z8 | 
[V:3] A2B4A2 | 
[V:4] z4z2F,2 | 
[V:1] cBA4^G2 | 
[V:2] z4z2e2- | 
[V:3] G2A2B4 | 
[V:4] E,2C,2D,2E,2 | 
[V:1] A2c2BGA2 | 
[V:2] e2A2e2A2 | 
[V:3] A4z2c2- | 
[V:4] A,,2A,2G,E,F,2 | 
[V:1] GABcd2B2- | 
[V:2] e4f4 | 
[V:3] c2BGA2d2- | 
[V:4] E,4D,4 | 
[V:1] B2A4^G2 | 
[V:2] e8 | 
[V:3] d2cAB4 | 
[V:4] E,8 | 
[V:1] A8 |]  
[V:2] c8 |]  
[V:3] A8 |]  
[V:4] A,,8 |]  



